svg/FoundationIcons/fi-align-center.svg

<svg xmlns="http://www.w3.org/2000/svg" viewBox="0 0 100 100" enable-background="new 0 0 100 100"><path d="m81.23 15.14h-62.46c-1.882 0-3.407 1.525-3.407 3.407v3.143c0 1.881 1.525 3.407 3.407 3.407h62.46c1.881 0 3.407-1.525 3.407-3.407v-3.143c0-1.882-1.526-3.407-3.407-3.407"/><path d="m76.22 41.611v-3.143c0-1.882-1.525-3.407-3.407-3.407h-45.634c-1.882 0-3.407 1.525-3.407 3.407v3.143c0 1.881 1.525 3.407 3.407 3.407h45.634c1.882-.0001 3.407-1.526 3.407-3.407"/><path d="m77.81 74.905h-55.634c-1.882 0-3.407 1.525-3.407 3.407v3.143c0 1.881 1.525 3.407 3.407 3.407h55.634c1.881 0 3.407-1.525 3.407-3.407h.015v-3.143h-.015c0-1.881-1.526-3.407-3.407-3.407"/><path d="m72.817 58.39c0-1.882-1.525-3.407-3.407-3.407h-38.82c-1.882 0-3.407 1.525-3.407 3.407v3.143c0 1.881 1.525 3.407 3.407 3.407h38.82c1.881 0 3.407-1.525 3.407-3.407v-3.142-.0001"/></svg>

<?xml version="1.0" encoding="utf-8"?>
<!-- Generator: Adobe Illustrator 17.0.0, SVG Export Plug-In . SVG Version: 6.00 Build 0)  -->
<!DOCTYPE svg PUBLIC "-//W3C//DTD SVG 1.1//EN" "http://www.w3.org/Graphics/SVG/1.1/DTD/svg11.dtd">
<svg version="1.1" id="Layer_1" xmlns="http://www.w3.org/2000/svg" xmlns:xlink="http://www.w3.org/1999/xlink" x="0px" y="0px"
	 width="100px" height="100px" viewBox="0 0 100 100" enable-background="new 0 0 100 100" xml:space="preserve">
<g>
	<path d="M81.232,15.138H18.769c-1.882,0-3.407,1.525-3.407,3.407v3.143c0,1.881,1.525,3.407,3.407,3.407h62.463
		c1.881,0,3.407-1.525,3.407-3.407v-3.143C84.639,16.663,83.113,15.138,81.232,15.138z"/>
	<path d="M76.224,41.611L76.224,41.611l0-3.143h0c0-1.882-1.525-3.407-3.407-3.407h0H27.183c-1.882,0-3.407,1.525-3.407,3.407v3.143
		c0,1.881,1.525,3.407,3.407,3.407h45.634h0C74.699,45.017,76.224,43.492,76.224,41.611z"/>
	<path d="M77.81,74.905L77.81,74.905H22.176c-1.882,0-3.407,1.525-3.407,3.407v3.143c0,1.881,1.525,3.407,3.407,3.407H77.81h0
		c1.881,0,3.407-1.525,3.407-3.407h0.015v-3.143h-0.015C81.217,76.431,79.691,74.905,77.81,74.905z"/>
	<path d="M72.817,58.39c0-1.882-1.525-3.407-3.407-3.407l0,0v0H30.59c-1.882,0-3.407,1.525-3.407,3.407v3.143
		c0,1.881,1.525,3.407,3.407,3.407h38.82v0l0,0c1.881,0,3.407-1.525,3.407-3.407c0,0,0-0.001,0-0.001v-3.141L72.817,58.39z"/>
</g>
</svg>
